src/assets/svg/icons/fa/nuevos/classic/light/landmark-dome classic light.svg

<svg xmlns="http://www.w3.org/2000/svg" viewBox="0 0 512 512"><!--! Font Awesome Pro 6.4.0 by @fontawesome - https://fontawesome.com License - https://fontawesome.com/license (Commercial License) Copyright 2023 Fonticons, Inc. --><path d="M256 0c8.8 0 16 7.2 16 16V32.7c87.9 7.2 159 73.7 173.3 159.3H464c8.8 0 16 7.2 16 16s-7.2 16-16 16H448 416 96 64 48c-8.8 0-16-7.2-16-16s7.2-16 16-16H66.7C81 106.3 152.1 39.9 240 32.7V16c0-8.8 7.2-16 16-16zM99.2 192H412.8C398 119 333.4 64 256 64s-142 55-156.8 128zM64 352V256H96v96h80V256h32v96h96V256h32v96h80V256h32v96c8.8 0 16 7.2 16 16s-7.2 16-16 16H64c-8.8 0-16-7.2-16-16s7.2-16 16-16zM24 432c0-8.8 7.2-16 16-16H472c8.8 0 16 7.2 16 16s-7.2 16-16 16H40c-8.8 0-16-7.2-16-16zM0 496c0-8.8 7.2-16 16-16H496c8.8 0 16 7.2 16 16s-7.2 16-16 16H16c-8.8 0-16-7.2-16-16z"/></svg>

<svg xmlns="http://www.w3.org/2000/svg" viewBox="0 0 512 512"><path d="M256 0C264.8 0 272 7.164 272 16V32.66C359.9 39.91 430.1 106.3 445.3 192H464C472.8 192 480 199.2 480 208C480 216.8 472.8 224 464 224H48C39.16 224 32 216.8 32 208C32 199.2 39.16 192 48 192H66.65C81.03 106.3 152.1 39.91 240 32.66V16C240 7.164 247.2 0 256 0V0zM99.2 192H412.8C397.1 118.1 333.4 64 256 64C178.6 64 114 118.1 99.2 192H99.2zM64 352V256H96V352H176V256H208V352H304V256H336V352H416V256H448V352C456.8 352 464 359.2 464 368C464 376.8 456.8 384 448 384H64C55.16 384 48 376.8 48 368C48 359.2 55.16 352 64 352zM24 432C24 423.2 31.16 416 40 416H472C480.8 416 488 423.2 488 432C488 440.8 480.8 448 472 448H40C31.16 448 24 440.8 24 432zM0 496C0 487.2 7.164 480 16 480H496C504.8 480 512 487.2 512 496C512 504.8 504.8 512 496 512H16C7.164 512 0 504.8 0 496z"/></svg>
